dhis-2/dhis-support/dhis-support-system/src/main/resources/SVGs/syringe_negative.svg

<?xml version="1.0" encoding="UTF-8" standalone="no"?>
<!-- Created with Inkscape (http://www.inkscape.org/) -->
<svg id="svg8" xmlns:rdf="http://www.w3.org/1999/02/22-rdf-syntax-ns#" xmlns="http://www.w3.org/2000/svg" xmlns:osb="http://www.openswatchbook.org/uri/2009/osb" height="48" width="48" version="1.1" xmlns:cc="http://creativecommons.org/ns#" viewBox="0 0 12.7 12.7" xmlns:dc="http://purl.org/dc/elements/1.1/">
 <title id="title4753">UIO-icon</title>
 <metadata id="metadata5">
  <rdf:RDF>
   <cc:Work rdf:about="">
    <dc:format>image/svg+xml</dc:format>
    <dc:type rdf:resource="http://purl.org/dc/dcmitype/StillImage"/>
    <dc:title>UIO-icon</dc:title>
    <dc:creator>
     <cc:Agent>
      <dc:title>Joaquín Urbano</dc:title>
     </cc:Agent>
    </dc:creator>
    <dc:rights>
     <cc:Agent>
      <dc:title>GPL</dc:title>
     </cc:Agent>
    </dc:rights>
   </cc:Work>
  </rdf:RDF>
 </metadata>
 <g id="layer1" transform="translate(0,-284.3)">
  <path id="rect4774" d="m0 0v48h48v-48h-48zm22.881 4.0527c0.206 0.0171 0.384 0.1452 0.439 0.3379 0.074 0.2568-0.099 0.529-0.384 0.6114l-1.405 0.4042 1.67 5.7968 2.504-0.723 1.947-0.5581c0.257-0.0739 0.524 0.0711 0.598 0.3281s-0.075 0.524-0.332 0.598l-1.945 0.56 0.605 2.102 0.772 2.679 3.588 12.457c0.42 1.461-0.258 2.969-1.547 3.653 0.033 0.064 0.08 0.118 0.101 0.191 0.143 0.496-0.083 0.993-0.504 1.246l2.783 9.668c0.074 0.257-0.071 0.522-0.328 0.596-0.256 0.074-0.523-0.071-0.597-0.328l-2.78-9.658c-0.512 0.035-0.996-0.267-1.144-0.782-0.023-0.078-0.014-0.154-0.02-0.232-1.435 0.081-2.781-0.828-3.197-2.271l-3.586-12.458-0.771-2.679-0.606-2.1-1.945 0.559c-0.257 0.073-0.526-0.073-0.6-0.33s0.075-0.524 0.332-0.598l1.946-0.559 2.179-0.628-1.67-5.7973-1.078 0.3105c-0.285 0.0822-0.576-0.0555-0.65-0.3125-0.074-0.2568 0.097-0.5328 0.383-0.6152l5.031-1.4473c0.071-0.0206 0.142-0.0272 0.211-0.0215zm-2.277 1.6192l-0.692 0.1992 1.67 5.7969 0.691-0.199-1.669-5.7971zm4.447 6.0021l-1.582 0.455 1.398 4.857 1.582-0.455-1.398-4.857zm-2.51 0.722l-0.693 0.2 1.398 4.857 0.693-0.199-1.398-4.858zm-1.619 0.467l-1.24 0.358 1.398 4.855 1.24-0.355-1.398-4.858zm5.795 4.596l-5.369 1.545 0.57 1.98 5.611-0.703-0.008-0.029-0.087-0.307-1.047 0.301c-0.257 0.074-0.522-0.073-0.596-0.33s0.073-0.522 0.33-0.596l1.045-0.3-0.449-1.561zm0.98 3.402l-5.613 0.703 0.066 0.235 2.434 8.451c0.368 1.279 1.693 2.011 2.973 1.643l0.125-0.038 0.244-0.07 0.189-0.055 0.194-0.056v0.002c1.279-0.369 2.014-1.694 1.646-2.973l-0.148-0.512-1.045 0.301c-0.257 0.074-0.524-0.075-0.598-0.332s0.073-0.521 0.33-0.596l1.045-0.3-0.326-1.133-1.045 0.301c-0.257 0.074-0.524-0.075-0.598-0.332s0.074-0.522 0.33-0.596l1.047-0.301-0.328-1.135-1.045 0.301c-0.257 0.074-0.522-0.073-0.595-0.33-0.074-0.257 0.071-0.522 0.328-0.596l1.047-0.3-0.327-1.135-1.047 0.301c-0.256 0.074-0.521-0.073-0.595-0.33s0.073-0.522 0.33-0.596l1.045-0.301-0.063-0.221zm-4.066 1.432a0.51534 0.51534 0 0 1 0.5 0.373 0.51534 0.51534 0 0 1 -0.319 0.627v0.002a0.51534 0.51534 0 0 1 -0.033 0.008 0.51534 0.51534 0 0 1 -0.638 -0.354 0.51534 0.51534 0 0 1 0.353 -0.637 0.51534 0.51534 0 0 1 0.137 -0.019zm2.094 2.129a0.38505 0.38505 0 0 1 0.375 0.279 0.38505 0.38505 0 0 1 -0.264 0.477 0.38505 0.38505 0 0 1 -0.479 -0.264 0.38505 0.38505 0 0 1 0.264 -0.478 0.38505 0.38505 0 0 1 0.104 -0.014zm-1.127 2.049a0.37321 0.37321 0 0 1 0.363 0.269 0.37321 0.37321 0 0 1 -0.231 0.455 0.37321 0.37321 0 0 1 -0.027 0.008 0.37321 0.37321 0 0 1 -0.461 -0.256 0.37321 0.37321 0 0 1 0.256 -0.461 0.37321 0.37321 0 0 1 0.1 -0.015zm2.019 1.634a0.31398 0.31398 0 0 1 0.305 0.227 0.31398 0.31398 0 0 1 -0.215 0.389 0.31398 0.31398 0 0 1 -0.389 -0.215 0.31398 0.31398 0 0 1 0.215 -0.387 0.31398 0.31398 0 0 1 0.084 -0.014zm-0.213 2.172a0.21923 0.21923 0 0 1 0.235 0.159 0.21923 0.21923 0 0 1 -0.135 0.265 0.21923 0.21923 0 0 1 -0.014 0.004 0.21923 0.21923 0 0 1 -0.271 -0.148 0.21923 0.21923 0 0 1 0.15 -0.272 0.21923 0.21923 0 0 1 0.035 -0.008zm1.43 0.606a0.21923 0.21923 0 0 1 0.213 0.16 0.21923 0.21923 0 0 1 -0.135 0.264v0.002a0.21923 0.21923 0 0 1 -0.016 0.003 0.21923 0.21923 0 0 1 -0.269 -0.15 0.21923 0.21923 0 0 1 0.148 -0.271 0.21923 0.21923 0 0 1 0.059 -0.008z" transform="matrix(.26458 0 0 .26458 0 284.3)" fill="#333"/>
 </g>
</svg>

<svg width="48" height="48" viewBox="0 0 48 48" fill="none" xmlns="http://www.w3.org/2000/svg">
<path d="M0 0V47.9994H47.9994V0H0ZM22.8807 4.05265C23.0867 4.06975 23.2647 4.19785 23.3197 4.39055C23.3937 4.64734 23.2207 4.91954 22.9357 5.00194L21.5307 5.40613L23.2007 11.2029L25.7047 10.4799L27.6517 9.92178C27.9087 9.84788 28.1756 9.99288 28.2496 10.2499C28.3236 10.5069 28.1746 10.7739 27.9177 10.8479L25.9727 11.4079L26.5777 13.5098L27.3497 16.1888L30.9376 28.6456C31.3576 30.1066 30.6796 31.6146 29.3906 32.2986C29.4236 32.3626 29.4706 32.4166 29.4916 32.4896C29.6346 32.9856 29.4086 33.4826 28.9876 33.7356L31.7706 43.4035C31.8446 43.6605 31.6996 43.9254 31.4426 43.9995C31.1866 44.0734 30.9196 43.9284 30.8456 43.6715L28.0656 34.0136C27.5537 34.0486 27.0697 33.7466 26.9217 33.2316C26.8987 33.1536 26.9077 33.0776 26.9017 32.9996C25.4667 33.0806 24.1207 32.1716 23.7047 30.7286L20.1187 18.2708L19.3478 15.5918L18.7418 13.4918L16.7968 14.0508C16.5398 14.1238 16.2708 13.9778 16.1968 13.7208C16.1228 13.4638 16.2718 13.1968 16.5288 13.1228L18.4748 12.5638L20.6537 11.9359L18.9838 6.13862L17.9058 6.44912C17.6208 6.53132 17.3298 6.39362 17.2558 6.13662C17.1818 5.87983 17.3528 5.60383 17.6388 5.52143L22.6697 4.07415C22.7407 4.05355 22.8117 4.04695 22.8807 4.05265ZM20.6037 5.67183L19.9118 5.87103L21.5817 11.6679L22.2727 11.4689L20.6037 5.67183ZM25.0507 11.6739L23.4687 12.1288L24.8667 16.9858L26.4487 16.5308L25.0507 11.6739ZM22.5407 12.3958L21.8477 12.5958L23.2457 17.4528L23.9387 17.2538L22.5407 12.3958ZM20.9217 12.8628L19.6818 13.2208L21.0797 18.0758L22.3197 17.7208L20.9217 12.8628ZM26.7167 17.4588L21.3477 19.0038L21.9177 20.9837L27.5287 20.2807L27.5207 20.2517L27.4337 19.9447L26.3867 20.2457C26.1297 20.3197 25.8647 20.1727 25.7907 19.9158C25.7167 19.6588 25.8637 19.3938 26.1207 19.3198L27.1657 19.0198L26.7167 17.4588ZM27.6967 20.8607L22.0837 21.5637L22.1497 21.7987L24.5837 30.2496C24.9517 31.5286 26.2767 32.2606 27.5567 31.8926L27.6817 31.8546L27.9256 31.7846L28.1146 31.7296L28.3086 31.6736V31.6756C29.5876 31.3066 30.3226 29.9816 29.9546 28.7026L29.8066 28.1906L28.7616 28.4916C28.5046 28.5656 28.2376 28.4166 28.1636 28.1596C28.0896 27.9027 28.2366 27.6387 28.4936 27.5637L29.5386 27.2637L29.2126 26.1307L28.1676 26.4317C27.9106 26.5057 27.6437 26.3567 27.5697 26.0997C27.4957 25.8427 27.6437 25.5777 27.8997 25.5037L28.9466 25.2027L28.6186 24.0677L27.5737 24.3687C27.3167 24.4427 27.0517 24.2957 26.9787 24.0387C26.9047 23.7817 27.0497 23.5167 27.3067 23.4427L28.3536 23.1427L28.0266 22.0077L26.9797 22.3087C26.7237 22.3827 26.4587 22.2357 26.3847 21.9787C26.3107 21.7217 26.4577 21.4567 26.7147 21.3827L27.7597 21.0817L27.6967 20.8607ZM23.6307 22.2927C23.7434 22.2917 23.8532 22.3276 23.9435 22.395C24.0338 22.4623 24.0996 22.5574 24.1307 22.6657C24.1669 22.7912 24.154 22.9257 24.0948 23.0421C24.0356 23.1585 23.9344 23.2481 23.8117 23.2927V23.2947C23.8008 23.2977 23.7898 23.3004 23.7787 23.3027C23.7136 23.3214 23.6454 23.3271 23.578 23.3195C23.5107 23.3118 23.4455 23.2909 23.3863 23.2581C23.327 23.2252 23.2748 23.1809 23.2327 23.1278C23.1905 23.0748 23.1593 23.0139 23.1407 22.9487C23.1032 22.8174 23.1192 22.6766 23.1854 22.5572C23.2516 22.4378 23.3625 22.3495 23.4937 22.3117C23.5383 22.2993 23.5844 22.2929 23.6307 22.2927ZM25.7247 24.4217C25.8091 24.4206 25.8916 24.4474 25.9594 24.4978C26.0271 24.5482 26.0764 24.6195 26.0997 24.7007C26.1137 24.7493 26.118 24.8003 26.1124 24.8506C26.1067 24.9009 26.0911 24.9496 26.0666 24.994C26.0421 25.0383 26.0091 25.0773 25.9695 25.1088C25.9298 25.1404 25.8844 25.1638 25.8357 25.1777C25.7869 25.192 25.7357 25.1966 25.6852 25.1911C25.6347 25.1855 25.5857 25.1701 25.5412 25.1455C25.4966 25.121 25.4574 25.0878 25.4257 25.0481C25.3941 25.0083 25.3706 24.9626 25.3567 24.9137C25.3425 24.865 25.3381 24.8139 25.3437 24.7635C25.3493 24.7131 25.3648 24.6642 25.3893 24.6198C25.4138 24.5754 25.4469 24.5362 25.4866 24.5047C25.5263 24.4731 25.5719 24.4496 25.6207 24.4357C25.6545 24.4263 25.6895 24.4216 25.7247 24.4217ZM24.5977 26.4707C24.6793 26.4697 24.759 26.4954 24.8245 26.544C24.8901 26.5926 24.9379 26.6613 24.9607 26.7397C24.9871 26.8307 24.978 26.9283 24.9351 27.0128C24.8922 27.0973 24.8188 27.1623 24.7297 27.1947C24.7208 27.1977 24.7118 27.2003 24.7027 27.2027C24.6076 27.2297 24.5057 27.218 24.4192 27.17C24.3328 27.122 24.269 27.0417 24.2417 26.9467C24.2146 26.8516 24.2264 26.7496 24.2743 26.6632C24.3223 26.5768 24.4027 26.5129 24.4977 26.4857C24.5302 26.4762 24.5638 26.4711 24.5977 26.4707ZM26.6167 28.1046C26.6853 28.1039 26.7523 28.1257 26.8074 28.1667C26.8625 28.2077 26.9026 28.2657 26.9217 28.3316C26.9331 28.3713 26.9367 28.4128 26.9321 28.4539C26.9275 28.4949 26.9148 28.5346 26.8948 28.5707C26.8749 28.6069 26.848 28.6387 26.8157 28.6644C26.7834 28.6901 26.7463 28.7093 26.7067 28.7206C26.667 28.7321 26.6255 28.7356 26.5845 28.731C26.5434 28.7264 26.5037 28.7138 26.4676 28.6938C26.4314 28.6738 26.3996 28.6469 26.3739 28.6147C26.3482 28.5824 26.3291 28.5453 26.3177 28.5056C26.2951 28.4258 26.3051 28.3403 26.3454 28.2678C26.3856 28.1953 26.453 28.1417 26.5327 28.1186C26.5599 28.1102 26.5882 28.1055 26.6167 28.1046ZM26.4037 30.2766C26.4553 30.271 26.5073 30.2839 26.5504 30.313C26.5934 30.3421 26.6247 30.3856 26.6387 30.4356C26.6536 30.4887 26.648 30.5454 26.623 30.5945C26.598 30.6436 26.5554 30.6815 26.5037 30.7006C26.499 30.7021 26.4944 30.7034 26.4897 30.7046C26.4341 30.7207 26.3745 30.7141 26.3237 30.6864C26.2729 30.6587 26.2352 30.612 26.2187 30.5566C26.2106 30.5289 26.2081 30.4999 26.2113 30.4712C26.2144 30.4425 26.2233 30.4147 26.2372 30.3895C26.2511 30.3642 26.2699 30.3419 26.2925 30.3239C26.315 30.3059 26.3409 30.2926 26.3687 30.2846C26.3801 30.281 26.3918 30.2783 26.4037 30.2766ZM27.8337 30.8826C27.8818 30.8822 27.9287 30.8976 27.9672 30.9265C28.0057 30.9555 28.0336 30.9963 28.0466 31.0426C28.0613 31.0955 28.0555 31.152 28.0305 31.2009C28.0056 31.2498 27.9631 31.2875 27.9117 31.3066V31.3086C27.9064 31.3098 27.901 31.3108 27.8956 31.3116C27.8401 31.327 27.7807 31.3199 27.7304 31.2918C27.68 31.2637 27.6428 31.217 27.6267 31.1616C27.6106 31.1061 27.6171 31.0464 27.6448 30.9956C27.6726 30.9449 27.7192 30.9071 27.7747 30.8906C27.7939 30.8853 27.8137 30.8826 27.8337 30.8826Z" fill="#333333"/>
</svg>
